public/tools-icons/intellij-idea.svg

<svg xmlns="http://www.w3.org/2000/svg" width="24" height="24" fill="none" viewBox="0 0 24 24"><g clip-path="url(#a)"><path fill="#c8c2ff" d="M0 0v24h24V0zm3.723 3.111h5v1.834h-1.39v6.277h1.39v1.834h-5v-1.834h1.444V4.945H3.723zm11.055 0H17v6.5c0 .612-.055 1.111-.222 1.556-.167.444-.39.777-.723 1.11-.277.279-.666.557-1.11.668a3.9 3.9 0 0 1-1.445.278c-.778 0-1.444-.167-1.944-.445a4.8 4.8 0 0 1-1.279-1.056l1.39-1.555a3.2 3.2 0 0 0 .833.722c.277.167.611.278.945.278.389 0 .721-.111 1-.389.221-.278.333-.667.333-1.278zM2.222 19.5h9V21h-9z"/></g><defs><clipPath id="a"><path fill="#fff" d="M0 0h24v24H0z"/></clipPath></defs></svg>

<svg xmlns="http://www.w3.org/2000/svg" width="24" height="24" fill="none"><g clip-path="url(#clip0_140_116)"><path fill="#c8c2ff" d="M0 0V24H24V0H0ZM3.723 3.111H8.723V4.945H7.333V11.222H8.723V13.056H3.723V11.222H5.167V4.945H3.723V3.111ZM14.778 3.111H17V9.611C17 10.223 16.945 10.722 16.778 11.167C16.611 11.611 16.388 11.944 16.055 12.277C15.778 12.556 15.389 12.834 14.945 12.945C14.4851 13.1277 13.9949 13.2221 13.5 13.223C12.722 13.223 12.056 13.056 11.556 12.778C11.0717 12.5027 10.639 12.1454 10.277 11.722L11.667 10.167C11.944 10.501 12.222 10.722 12.5 10.889C12.777 11.056 13.111 11.167 13.445 11.167C13.834 11.167 14.166 11.056 14.445 10.778C14.666 10.5 14.778 10.111 14.778 9.5V3.111ZM2.222 19.5H11.222V21H2.222V19.5Z"/></g><defs><clipPath id="clip0_140_116"><path fill="#fff" d="M0 0H24V24H0z"/></clipPath></defs></svg>
